luts/Log2_to_SonyP.spi1d
Version 1
From 0.000000 1.000000
Length 4096
Components 1
{
        1.00000000000E-2
        1.00529274282E-2
        1.01052420637E-2
        1.01569493740E-2
        1.02080548023E-2
        1.02585637674E-2
        1.03084816637E-2
        1.03578138616E-2
        1.04065657070E-2
        1.04547425219E-2
        1.05023496042E-2
        1.05493922280E-2
        1.05958756432E-2
        1.06418050761E-2
        1.06871857292E-2
        1.07320227813E-2
        1.07763213875E-2
        1.08200866795E-2
        1.08633237654E-2
        1.09060377299E-2
        1.09482336343E-2
        1.09899165167E-2
        1.10310913920E-2
        1.10717632519E-2
        1.11119370649E-2
        1.11516177767E-2
        1.11908103099E-2
        1.12295195642E-2
        1.12677504167E-2
        1.13055077215E-2
        1.13427963102E-2
        1.13796209915E-2
        1.14159865519E-2
        1.14518977552E-2
        1.14873593429E-2
        1.15223760339E-2
        1.15569525251E-2
        1.15910934911E-2
        1.16248035842E-2
        1.16580874347E-2
        1.16909496510E-2
        1.17233948193E-2
        1.17554275040E-2
        1.17870522477E-2
        1.18182735712E-2
        1.18490959737E-2
        1.18795239325E-2
        1.19095619035E-2
        1.19392143212E-2
        1.19684855983E-2
        1.19973801265E-2
        1.20259022759E-2
        1.20540563956E-2
        1.20818468131E-2
        1.21092778352E-2
        1.21363537474E-2
        1.21630788142E-2
        1.21894572793E-2
        1.22154933654E-2
        1.22411912742E-2
        1.22665551871E-2
        1.22915892645E-2
        1.23162976461E-2
        1.23406844513E-2
        1.23647537787E-2
        1.23885097067E-2
        1.24119562933E-2
        1.24350975759E-2
        1.24579375720E-2
        1.24804802788E-2
        1.25027296731E-2
        1.25246897120E-2
        1.25463643325E-2
        1.25677574513E-2
        1.25888729658E-2
        1.26097147530E-2
        1.26302866705E-2
        1.26505925561E-2
        1.26706362279E-2
        1.26904214844E-2
        1.27099521047E-2
        1.27292318483E-2
        1.27482644553E-2
        1.27670536466E-2
        1.27856031235E-2
        1.28039165685E-2
        1.28219976446E-2
        1.28398499958E-2
        1.28574772471E-2
        1.28748830043E-2
        1.28920708547E-2
        1.29090443662E-2
        1.29258070883E-2
        1.29423625515E-2
        1.29587142678E-2
        1.29748657303E-2
        1.29908204138E-2
        1.30065817744E-2
        1.30221532498E-2
        1.30375382593E-2
        1.30527402039E-2
        1.30677624661E-2
        1.30826084105E-2
        1.30972813833E-2
        1.31117847125E-2
        1.31261217084E-2
        1.31402956629E-2
        1.31543098502E-2
        1.31681675265E-2
        1.31818719303E-2
        1.31954262822E-2
        1.32088337851E-2
        1.32220976244E-2
        1.32352209676E-2
        1.32482069649E-2
        1.32610587490E-2
        1.32737794350E-2
        1.32863721207E-2
        1.32988398866E-2
        1.33111857961E-2
        1.33234128950E-2
        1.33355242123E-2
        1.33475227597E-2
        1.33594115320E-2
        1.33711935068E-2
        1.33828716451E-2
        1.33944488907E-2
        1.34059281707E-2
        1.34173123955E-2
        1.34286044587E-2
        1.34398072372E-2
        1.34509235914E-2
        1.34619563652E-2
        1.34729083857E-2
        1.34837824640E-2
        1.34945813945E-2
        1.35053079553E-2
        1.35159649083E-2
        1.35265549991E-2
        1.35370809573E-2
        1.35475454962E-2
        1.35579513131E-2
        1.35683010893E-2
        1.35785974900E-2
        1.35888431648E-2
        1.35990407472E-2
        1.36091928548E-2
        1.36193020899E-2
        1.36293710387E-2
        1.36394022718E-2
        1.36493983444E-2
        1.36593617961E-2
        1.36692951509E-2
        1.36792009175E-2
        1.36890815891E-2
        1.36989396437E-2
        1.37087775440E-2
        1.37185977373E-2
        1.37284026560E-2
        1.37381947172E-2
        1.37479763230E-2
        1.37577498604E-2
        1.37675177016E-2
        1.37772822037E-2
        1.37870457090E-2
        1.37968105450E-2
        1.38065790246E-2
        1.38163534456E-2
        1.38261360915E-2
        1.38359292309E-2
        1.38457351182E-2
        1.38555559930E-2
        1.38653940805E-2
        1.38752515914E-2
        1.38851307224E-2
        1.38950336554E-2
        1.39049625585E-2
        1.39149195852E-2
        1.39249068750E-2
        1.39349265534E-2
        1.39449807317E-2
        1.39550715072E-2
        1.39652009632E-2
        1.39753711693E-2
        1.39855841809E-2
        1.39958420399E-2
        1.40061467742E-2
        1.40165003980E-2
        1.40269049121E-2
        1.40373623033E-2
        1.40478745451E-2
        1.40584435973E-2
        1.40690714063E-2
        1.40797599051E-2
        1.40905110133E-2
        1.41013266371E-2
        1.41122086695E-2
        1.41231589901E-2
        1.41341794656E-2
        1.41452719493E-2
        1.41564382815E-2
        1.41676802894E-2
        1.41789997874E-2
        1.41903985765E-2
        1.42018784453E-2
        1.42134411692E-2
        1.42250885109E-2
        1.42368222204E-2
        1.42486440349E-2
        1.42605556788E-2
        1.42725588641E-2
        1.42846552902E-2
        1.42968466437E-2
        1.43091345989E-2
        1.43215208178E-2
        1.43340069497E-2
        1.43465946318E-2
        1.43592854888E-2
        1.43720811332E-2
        1.43849831654E-2
        1.43979931735E-2
        1.44111127335E-2
        1.44243434093E-2
        1.44376867527E-2
        1.44511443038E-2
        1.44647175905E-2
        1.44784081287E-2
        1.44922174228E-2
        1.45061469650E-2
        1.45201982360E-2
        1.45343727047E-2
        1.45486718283E-2
        1.45630970524E-2
        1.45776498109E-2
        1.45923315263E-2
        1.46071436095E-2
        1.46220874600E-2
        1.46371644659E-2
        1.46523760038E-2
        1.46677234392E-2
        1.46832081260E-2
        1.46988314071E-2
        1.47145946142E-2
        1.47304990676E-2
        1.47465460769E-2
        1.47627369402E-2
        1.47790729449E-2
        1.47955553672E-2
        1.48121854725E-2
        1.48289645153E-2
        1.48458937390E-2
        1.48629743765E-2
        1.48802076498E-2
        1.48975947702E-2
        1.49151369382E-2
        1.49328353438E-2
        1.49506911663E-2
        1.49687055745E-2
        1.49868797266E-2
        1.50052147705E-2
        1.50237118434E-2
        1.50423720723E-2
        1.50611965739E-2
        1.50801864542E-2
        1.50993428095E-2
        1.51186667254E-2
        1.51381592775E-2
        1.51578215313E-2
        1.51776545421E-2
        1.51976593551E-2
        1.52178370056E-2
        1.52381885188E-2
        1.52587149100E-2
        1.52794171846E-2
        1.53002963382E-2
        1.53213533564E-2
        1.53425892151E-2
        1.53640048806E-2
        1.53856013092E-2
        1.54073794479E-2
        1.54293402336E-2
        1.54514845942E-2
        1.54738134475E-2
        1.54963277021E-2
        1.55190282570E-2
        1.55419160020E-2
        1.55649918173E-2
        1.55882565736E-2
        1.56117111327E-2
        1.56353563469E-2
        1.56591930591E-2
        1.56832221033E-2
        1.57074443042E-2
        1.57318604774E-2
        1.57564714294E-2
        1.57812779577E-2
        1.58062808508E-2
        1.58314808882E-2
        1.58568788404E-2
        1.58824754692E-2
        1.59082715274E-2
        1.59342677590E-2
        1.59604648993E-2
        1.59868636747E-2
        1.60134648032E-2
        1.60402689938E-2
        1.60672769470E-2
        1.60944893549E-2
        1.61219069007E-2
        1.61495302594E-2
        1.61773600973E-2
        1.62053970724E-2
        1.62336418342E-2
        1.62620950239E-2
        1.62907572744E-2
        1.63196292101E-2
        1.63487114474E-2
        1.63780045944E-2
        1.64075092509E-2
        1.64372260087E-2
        1.64671554514E-2
        1.64972981546E-2
        1.65276546858E-2
        1.65582256044E-2
        1.65890114620E-2
        1.66200128023E-2
        1.66512301609E-2
        1.66826640656E-2
        1.67143150365E-2
        1.67461835858E-2
        1.67782702180E-2
        1.68105754298E-2
        1.68430997103E-2
        1.68758435409E-2
        1.69088073954E-2
        1.69419917400E-2
        1.69753970334E-2
        1.70090237267E-2
        1.70428722636E-2
        1.70769430804E-2
        1.71112366059E-2
        1.71457532616E-2
        1.71804934615E-2
        1.72154576125E-2
        1.72506461141E-2
        1.72860593587E-2
        1.73216977312E-2
        1.73575616098E-2
        1.73936513651E-2
        1.74299673609E-2
        1.74665099538E-2
        1.75032794933E-2
        1.75402763222E-2
        1.75775007759E-2
        1.76149531832E-2
        1.76526338660E-2
        1.76905431390E-2
        1.77286813104E-2
        1.77670486814E-2
        1.78056455467E-2
        1.78444721939E-2
        1.78835289041E-2
        1.79228159518E-2
        1.79623336047E-2
        1.80020821239E-2
        1.80420617640E-2
        1.80822727731E-2
        1.81227153928E-2
        1.81633898579E-2
        1.82042963973E-2
        1.82454352329E-2
        1.82868065808E-2
        1.83284106503E-2
        1.83702476445E-2
        1.84123177604E-2
        1.84546211885E-2
        1.84971581133E-2
        1.85399287128E-2
        1.85829331591E-2
        1.86261716182E-2
        1.86696442498E-2
        1.87133512077E-2
        1.87572926395E-2
        1.88014686869E-2
        1.88458794857E-2
        1.88905251657E-2
        1.89354058506E-2
        1.89805216585E-2
        1.90258727014E-2
        1.90714590858E-2
        1.91172809121E-2
        1.91633382750E-2
        1.92096312636E-2
        1.92561599612E-2
        1.93029244455E-2
        1.93499247884E-2
        1.93971610564E-2
        1.94446333102E-2
        1.94923416052E-2
        1.95402859911E-2
        1.95884665121E-2
        1.96368832071E-2
        1.96855361094E-2
        1.97344252470E-2
        1.97835506423E-2
        1.98329123128E-2
        1.98825102703E-2
        1.99323445214E-2
        1.99824150675E-2
        2.00327219048E-2
        2.00832650242E-2
        2.01340444115E-2
        2.01850600473E-2
        2.02363119072E-2
        2.02877999616E-2
        2.03395241758E-2
        2.03914845103E-2
        2.04436809203E-2
        2.04961133563E-2
        2.05487817637E-2
        2.06016860829E-2
        2.06548262497E-2
        2.07082021948E-2
        2.07618138442E-2
        2.08156611189E-2
        2.08697439353E-2
        2.09240622051E-2
        2.09786158352E-2
        2.10334047276E-2
        2.10884287800E-2
        2.11436878853E-2
        2.11991819316E-2
        2.12549108028E-2
        2.13108743779E-2
        2.13670725315E-2
        2.14235051337E-2
        2.14801720503E-2
        2.15370731422E-2
        2.15942082663E-2
        2.16515772750E-2
        2.17091800161E-2
        2.17670163334E-2
        2.18250860661E-2
        2.18833890494E-2
        2.19419251139E-2
        2.20006940861E-2
        2.20596957885E-2
        2.21189300391E-2
        2.21783966519E-2
        2.22380954367E-2
        2.22980261992E-2
        2.23581887412E-2
        2.24185828601E-2
        2.24792083495E-2
        2.25400649990E-2
        2.26011525942E-2
        2.26624709166E-2
        2.27240197440E-2
        2.27857988501E-2
        2.28478080048E-2
        2.29100469742E-2
        2.29725155205E-2
        2.30352134021E-2
        2.30981403737E-2
        2.31612961861E-2
        2.32246805865E-2
        2.32882933183E-2
        2.33521341214E-2
        2.34162027318E-2
        2.34804988820E-2
        2.35450223008E-2
        2.36097727137E-2
        2.36747498423E-2
        2.37399534049E-2
        2.38053831161E-2
        2.38710386871E-2
        2.39369198257E-2
        2.40030262363E-2
        2.40693576197E-2
        2.41359136734E-2
        2.42026940916E-2
        2.42696985650E-2
        2.43369267813E-2
        2.44043784245E-2
        2.44720531757E-2
        2.45399507123E-2
        2.46080707090E-2
        2.46764128370E-2
        2.47449767643E-2
        2.48137621559E-2
        2.48827686734E-2
        2.49519959757E-2
        2.50214437183E-2
        2.50911115538E-2
        2.51609991315E-2
        2.52311060980E-2
        2.53014320968E-2
        2.53719767683E-2
        2.54427397502E-2
        2.55137206770E-2
        2.55849191804E-2
        2.56563348893E-2
        2.57279674297E-2
        2.57998164248E-2
        2.58718814947E-2
        2.59441622571E-2
        2.60166583268E-2
        2.60893693157E-2
        2.61622948330E-2
        2.62354344855E-2
        2.63087878770E-2
        2.63823546086E-2
        2.64561342790E-2
        2.65301264842E-2
        2.66043308175E-2
        2.66787468697E-2
        2.67533742291E-2
        2.68282124813E-2
        2.69032612095E-2
        2.69785199944E-2
        2.70539884143E-2
        2.71296660450E-2
        2.72055524597E-2
        2.72816472294E-2
        2.73579499226E-2
        2.74344601056E-2
        2.75111773422E-2
        2.75881011939E-2
        2.76652312199E-2
        2.77425669771E-2
        2.78201080201E-2
        2.78978539015E-2
        2.79758041714E-2
        2.80539583778E-2
        2.81323160665E-2
        2.82108767812E-2
        2.82896400632E-2
        2.83686054522E-2
        2.84477724852E-2
        2.85271406976E-2
        2.86067096224E-2
        2.86864787907E-2
        2.87664477317E-2
        2.88466159723E-2
        2.89269830376E-2
        2.90075484509E-2
        2.90883117332E-2
        2.91692724037E-2
        2.92504299799E-2
        2.93317839771E-2
        2.94133339090E-2
        2.94950792873E-2
        2.95770196219E-2
        2.96591544209E-2
        2.97414831905E-2
        2.98240054353E-2
        2.99067206581E-2
        2.99896283600E-2
        3.00727280401E-2
        3.01560191963E-2
        3.02395013243E-2
        3.03231739185E-2
        3.04070364715E-2
        3.04910884744E-2
        3.05753294164E-2
        3.06597587856E-2
        3.07443760680E-2
        3.08291807485E-2
        3.09141723101E-2
        3.09993502345E-2
        3.10847140019E-2
        3.11702630909E-2
        3.12559969788E-2
        3.13419151413E-2
        3.14280170528E-2
        3.15143021861E-2
        3.16007700129E-2
        3.16874200032E-2
        3.17742516260E-2
        3.18612643487E-2
        3.19484576374E-2
        3.20358309569E-2
        3.21233837709E-2
        3.22111155417E-2
        3.22990257302E-2
        3.23871137963E-2
        3.24753791986E-2
        3.25638213944E-2
        3.26524398399E-2
        3.27412339903E-2
        3.28302032993E-2
        3.29193472198E-2
        3.30086652033E-2
        3.30981567004E-2
        3.31878211605E-2
        3.32776580321E-2
        3.33676667623E-2
        3.34578467977E-2
        3.35481975833E-2
        3.36387185635E-2
        3.37294091816E-2
        3.38202688799E-2
        3.39112970998E-2
        3.40024932816E-2
        3.40938568650E-2
        3.41853872884E-2
        3.42770839896E-2
        3.43689464055E-2
        3.44609739720E-2
        3.45531661242E-2
        3.46455222965E-2
        3.47380419223E-2
        3.48307244344E-2
        3.49235692647E-2
        3.50165758443E-2
        3.51097436037E-2
        3.52030719724E-2
        3.52965603796E-2
        3.53902082533E-2
        3.54840150212E-2
        3.55779801102E-2
        3.56721029465E-2
        3.57663829557E-2
        3.58608195627E-2
        3.59554121919E-2
        3.60501602670E-2
        3.61450632112E-2
        3.62401204470E-2
        3.63353313966E-2
        3.64306954814E-2
        3.65262121224E-2
        3.66218807400E-2
        3.67177007542E-2
        3.68136715845E-2
        3.69097926499E-2
        3.70060633690E-2
        3.71024831599E-2
        3.71990514402E-2
        3.72957676272E-2
        3.73926311380E-2
        3.74896413888E-2
        3.75867977960E-2
        3.76840997752E-2
        3.77815467419E-2
        3.78791381112E-2
        3.79768732979E-2
        3.80747517165E-2
        3.81727727813E-2
        3.82709359061E-2
        3.83692405046E-2
        3.84676859902E-2
        3.85662717763E-2
        3.86649972757E-2
        3.87638619011E-2
        3.88628650653E-2
        3.89620061806E-2
        3.90612846592E-2
        3.91606999133E-2
        3.92602513547E-2
        3.93599383953E-2
        3.94597604468E-2
        3.95597169208E-2
        3.96598072288E-2
        3.97600307822E-2
        3.98603869925E-2
        3.99608752709E-2
        4.00614950288E-2
        4.01622456773E-2
        4.02631266279E-2
        4.03641372916E-2
        4.04652770798E-2
        4.05665454038E-2
        4.06679416749E-2
        4.07694653045E-2
        4.08711157040E-2
        4.09728922850E-2
        4.10747944590E-2
        4.11768216377E-2
        4.12789732331E-2
        4.13812486569E-2
        4.14836473213E-2
        4.15861686385E-2
        4.16888120209E-2
        4.17915768809E-2
        4.18944626315E-2
        4.19974686853E-2
        4.21005944557E-2
        4.22038393559E-2
        4.23072027996E-2
        4.24106842005E-2
        4.25142829726E-2
        4.26179985304E-2
        4.27218302884E-2
        4.28257776616E-2
        4.29298400650E-2
        4.30340169143E-2
        4.31383076251E-2
        4.32427116138E-2
        4.33472282966E-2
        4.34518570906E-2
        4.35565974128E-2
        4.36614486810E-2
        4.37664103129E-2
        4.38714817270E-2
        4.39766623421E-2
        4.40819515774E-2
        4.41873488524E-2
        4.42928535872E-2
        4.43984652023E-2
        4.45041831187E-2
        4.46100067578E-2
        4.47159355415E-2
        4.48219688922E-2
        4.49281062329E-2
        4.50343469869E-2
        4.51406905783E-2
        4.52471364314E-2
        4.53536839714E-2
        4.54603326237E-2
        4.55670818145E-2
        4.56739309706E-2
        4.57808795192E-2
        4.58879268882E-2
        4.59950725060E-2
        4.61023158019E-2
        4.62096562056E-2
        4.63170931473E-2
        4.64246260582E-2
        4.65322543697E-2
        4.66399775144E-2
        4.67477949251E-2
        4.68557060356E-2
        4.69637102801E-2
        4.70718070938E-2
        4.71799959124E-2
        4.72882761724E-2
        4.73966473111E-2
        4.75051087663E-2
        4.76136599768E-2
        4.77223003821E-2
        4.78310294223E-2
        4.79398465385E-2
        4.80487511724E-2
        4.81577427666E-2
        4.82668207645E-2
        4.83759846102E-2
        4.84852337488E-2
        4.85945676261E-2
        4.87039856887E-2
        4.88134873842E-2
        4.89230721609E-2
        4.90327394681E-2
        4.91424887559E-2
        4.92523194751E-2
        4.93622310778E-2
        4.94722230166E-2
        4.95822947453E-2
        4.96924457183E-2
        4.98026753913E-2
        4.99129832206E-2
        5.00233686637E-2
        5.01338311788E-2
        5.02443702252E-2
        5.03549852632E-2
        5.04656757539E-2
        5.05764411597E-2
        5.06872809435E-2
        5.07981945697E-2
        5.09091815033E-2
        5.10202412106E-2
        5.11313731588E-2
        5.12425768161E-2
        5.13538516518E-2
        5.14651971362E-2
        5.15766127407E-2
        5.16880979376E-2
        5.17996522005E-2
        5.19112750038E-2
        5.20229658234E-2
        5.21347241358E-2
        5.22465494189E-2
        5.23584411517E-2
        5.24703988141E-2
        5.25824218873E-2
        5.26945098536E-2
        5.28066621964E-2
        5.29188784003E-2
        5.30311579509E-2
        5.31435003351E-2
        5.32559050408E-2
        5.33683715574E-2
        5.34808993751E-2
        5.35934879854E-2
        5.37061368811E-2
        5.38188455561E-2
        5.39316135056E-2
        5.40444402257E-2
        5.41573252142E-2
        5.42702679697E-2
        5.43832679923E-2
        5.44963247831E-2
        5.46094378447E-2
        5.47226066808E-2
        5.48358307963E-2
        5.49491096976E-2
        5.50624428920E-2
        5.51758298885E-2
        5.52892701970E-2
        5.54027633289E-2
        5.55163087969E-2
        5.56299061149E-2
        5.57435547981E-2
        5.58572543632E-2
        5.59710043280E-2
        5.60848042117E-2
        5.61986535349E-2
        5.63125518194E-2
        5.64264985885E-2
        5.65404933667E-2
        5.66545356800E-2
        5.67686250556E-2
        5.68827610222E-2
        5.69969431099E-2
        5.71111708500E-2
        5.72254437752E-2
        5.73397614199E-2
        5.74541233195E-2
        5.75685290110E-2
        5.76829780328E-2
        5.77974699248E-2
        5.79120042280E-2
        5.80265804852E-2
        5.81411982403E-2
        5.82558570389E-2
        5.83705564279E-2
        5.84852959557E-2
        5.86000751722E-2
        5.87148936285E-2
        5.88297508774E-2
        5.89446464732E-2
        5.90595799714E-2
        5.91745509293E-2
        5.92895589056E-2
        5.94046034602E-2
        5.95196841548E-2
        5.96348005526E-2
        5.97499522180E-2
        5.98651387173E-2
        5.99803596181E-2
        6.00956144894E-2
        6.02109029020E-2
        6.03262244280E-2
        6.04415786411E-2
        6.05569651166E-2
        6.06723834312E-2
        6.07878331633E-2
        6.09033138927E-2
        6.10188252009E-2
        6.11343666708E-2
        6.12499378871E-2
        6.13655384357E-2
        6.14811679044E-2
        6.15968258824E-2
        6.17125119606E-2
        6.18282257314E-2
        6.19439667887E-2
        6.20597347283E-2
        6.21755291471E-2
        6.22913496442E-2
        6.24071958198E-2
        6.25230672759E-2
        6.26389636162E-2
        6.27548844458E-2
        6.28708293718E-2
        6.29867980024E-2
        6.31027899479E-2
        6.32188048199E-2
        6.33348422318E-2
        6.34509017988E-2
        6.35669831373E-2
        6.36830858657E-2
        6.37992096039E-2
        6.39153539736E-2
        6.40315185981E-2
        6.41477031022E-2
        6.42639071126E-2
        6.43801302575E-2
        6.44963721668E-2
        6.46126324723E-2
        6.47289108070E-2
        6.48452068062E-2
        6.49615201063E-2
        6.50778503458E-2
        6.51941971647E-2
        6.53105602048E-2
        6.54269391094E-2
        6.55433335238E-2
        6.56597430948E-2
        6.57761674709E-2
        6.58926063024E-2
        6.60090592414E-2
        6.61255259415E-2
        6.62420060581E-2
        6.63584992485E-2
        6.64750051715E-2
        6.65915234877E-2
        6.67080538595E-2
        6.68245959509E-2
        6.69411494278E-2
        6.70577139578E-2
        6.71742892101E-2
        6.72908748558E-2
        6.74074705678E-2
        6.75240760207E-2
        6.76406908906E-2
        6.77573148558E-2
        6.78739475960E-2
        6.79905887929E-2
        6.81072381298E-2
        6.82238952919E-2
        6.83405599661E-2
        6.84572318411E-2
        6.85739106074E-2
        6.86905959572E-2
        6.88072875845E-2
        6.89239851852E-2
        6.90406884568E-2
        6.91573970988E-2
        6.92741108123E-2
        6.93908293002E-2
        6.95075522674E-2
        6.96242794204E-2
        6.97410104676E-2
        6.98577451191E-2
        6.99744830869E-2
        7.00912240848E-2
        7.02079678284E-2
        7.03247140351E-2
        7.04414624239E-2
        7.05582127161E-2
        7.06749646344E-2
        7.07917179035E-2
        7.09084722498E-2
        7.10252274016E-2
        7.11419830890E-2
        7.12587390441E-2
        7.13754950005E-2
        7.14922506939E-2
        7.16090058616E-2
        7.17257602430E-2
        7.18425135791E-2
        7.19592656129E-2
        7.20760160891E-2
        7.21927647543E-2
        7.23095113570E-2
        7.24262556475E-2
        7.25429973778E-2
