luts/Log2_to_NikonD5200.spi1d
Version 1
From 0.000000 1.000000
Length 4096
Components 1
{
        6.00000000000E-3
        6.04825609028E-3
        6.09632144224E-3
        6.14419662233E-3
        6.19188219666E-3
        6.23937873098E-3
        6.28668679070E-3
        6.33380694088E-3
        6.38073974622E-3
        6.42748577108E-3
        6.47404557948E-3
        6.52041973506E-3
        6.56660880115E-3
        6.61261334069E-3
        6.65843391631E-3
        6.70407109026E-3
        6.74952542445E-3
        6.79479748045E-3
        6.83988781946E-3
        6.88479700236E-3
        6.92952558965E-3
        6.97407414151E-3
        7.01844321773E-3
        7.06263337780E-3
        7.10664518082E-3
        7.15047918556E-3
        7.19413595044E-3
        7.23761603353E-3
        7.28091999253E-3
        7.32404838483E-3
        7.36700176744E-3
        7.40978069702E-3
        7.45238572990E-3
        7.49481742206E-3
        7.53707632909E-3
        7.57916300629E-3
        7.62107800858E-3
        7.66282189051E-3
        7.70439520632E-3
        7.74579850988E-3
        7.78703235471E-3
        7.82809729399E-3
        7.86899388054E-3
        7.90972266684E-3
        7.95028420501E-3
        7.99067904683E-3
        8.03090774373E-3
        8.07097084677E-3
        8.11086890670E-3
        8.15060247388E-3
        8.19017209835E-3
        8.22957832979E-3
        8.26882171752E-3
        8.30790281052E-3
        8.34682215743E-3
        8.38558030653E-3
        8.42417780575E-3
        8.46261520267E-3
        8.50089304452E-3
        8.53901187818E-3
        8.57697225020E-3
        8.61477470675E-3
        8.65241979367E-3
        8.68990805644E-3
        8.72724004020E-3
        8.76441628974E-3
        8.80143734949E-3
        8.83830376353E-3
        8.87501607561E-3
        8.91157482912E-3
        8.94798056709E-3
        8.98423383221E-3
        9.02033516683E-3
        9.05628511292E-3
        9.09208421214E-3
        9.12773300577E-3
        9.16323203475E-3
        9.19858183968E-3
        9.23378296080E-3
        9.26883593801E-3
        9.30374131083E-3
        9.33849961848E-3
        9.37311139980E-3
        9.40757719327E-3
        9.44189753705E-3
        9.47607296892E-3
        9.51010402635E-3
        9.54399124642E-3
        9.57773516588E-3
        9.61133632113E-3
        9.64479524822E-3
        9.67811248285E-3
        9.71128856037E-3
        9.74432401577E-3
        9.77721938371E-3
        9.80997519849E-3
        9.84259199406E-3
        9.87507030402E-3
        9.90741066163E-3
        9.93961359978E-3
        9.97167965103E-3
        1.00036093476E-2
        1.00354032213E-2
        1.00670618037E-2
        1.00985856259E-2
        1.01299752187E-2
        1.01612311126E-2
        1.01923538377E-2
        1.02233439238E-2
        1.02542019002E-2
        1.02849282960E-2
        1.03155236400E-2
        1.03459884604E-2
        1.03763232853E-2
        1.04065286424E-2
        1.04366050589E-2
        1.04665530619E-2
        1.04963731778E-2
        1.05260659331E-2
        1.05556318536E-2
        1.05850714649E-2
        1.06143852922E-2
        1.06435738603E-2
        1.06726376938E-2
        1.07015773168E-2
        1.07303932532E-2
        1.07590860264E-2
        1.07876561595E-2
        1.08161041754E-2
        1.08444305963E-2
        1.08726359444E-2
        1.09007207415E-2
        1.09286855088E-2
        1.09565307674E-2
        1.09842570380E-2
        1.10118648409E-2
        1.10393546960E-2
        1.10667271230E-2
        1.10939826412E-2
        1.11211217694E-2
        1.11481450263E-2
        1.11750529301E-2
        1.12018459986E-2
        1.12285247493E-2
        1.12550896996E-2
        1.12815413661E-2
        1.13078802653E-2
        1.13341069135E-2
        1.13602218263E-2
        1.13862255191E-2
        1.14121185072E-2
        1.14379013051E-2
        1.14635744273E-2
        1.14891383878E-2
        1.15145937002E-2
        1.15399408780E-2
        1.15651804341E-2
        1.15903128811E-2
        1.16153387313E-2
        1.16402584966E-2
        1.16650726887E-2
        1.16897818187E-2
        1.17143863976E-2
        1.17388869358E-2
        1.17632839436E-2
        1.17875779308E-2
        1.18117694069E-2
        1.18358588810E-2
        1.18598468619E-2
        1.18837338580E-2
        1.19075203775E-2
        1.19312069281E-2
        1.19547940171E-2
        1.19782821516E-2
        1.20016718383E-2
        1.20249635836E-2
        1.20481578934E-2
        1.20712552733E-2
        1.20942562287E-2
        1.21171612645E-2
        1.21399708853E-2
        1.21626855953E-2
        1.21853058985E-2
        1.22078322983E-2
        1.22302652981E-2
        1.22526054005E-2
        1.22748531081E-2
        1.22970089232E-2
        1.23190733473E-2
        1.23410468821E-2
        1.23629300286E-2
        1.23847232875E-2
        1.24064271593E-2
        1.24280421440E-2
        1.24495687413E-2
        1.24710074506E-2
        1.24923587708E-2
        1.25136232006E-2
        1.25348012384E-2
        1.25558933820E-2
        1.25769001290E-2
        1.25978219768E-2
        1.26186594222E-2
        1.26394129618E-2
        1.26600830918E-2
        1.26806703080E-2
        1.27011751060E-2
        1.27215979808E-2
        1.27419394274E-2
        1.27621999401E-2
        1.27823800131E-2
        1.28024801402E-2
        1.28225008147E-2
        1.28424425297E-2
        1.28623057779E-2
        1.28820910517E-2
        1.29017988431E-2
        1.29214296437E-2
        1.29409839449E-2
        1.29604622377E-2
        1.29798650125E-2
        1.29991927598E-2
        1.30184459693E-2
        1.30376251308E-2
        1.30567307333E-2
        1.30757632658E-2
        1.30947232168E-2
        1.31136110745E-2
        1.31324273265E-2
        1.31511724606E-2
        1.31698469636E-2
        1.31884513225E-2
        1.32069860236E-2
        1.32254515531E-2
        1.32438483965E-2
        1.32621770393E-2
        1.32804379666E-2
        1.32986316630E-2
        1.33167586127E-2
        1.33348192999E-2
        1.33528142080E-2
        1.33707438205E-2
        1.33886086201E-2
        1.34064090895E-2
        1.34241457109E-2
        1.34418189663E-2
        1.34594293370E-2
        1.34769773043E-2
        1.34944633490E-2
        1.35118879516E-2
        1.35292515922E-2
        1.35465547506E-2
        1.35637979062E-2
        1.35809815382E-2
        1.35981061252E-2
        1.36151721455E-2
        1.36321800774E-2
        1.36491303983E-2
        1.36660235858E-2
        1.36828601166E-2
        1.36996404676E-2
        1.37163651149E-2
        1.37330345345E-2
        1.37496492020E-2
        1.37662095926E-2
        1.37827161812E-2
        1.37991694423E-2
        1.38155698502E-2
        1.38319178786E-2
        1.38482140010E-2
        1.38644586907E-2
        1.38806524203E-2
        1.38967956623E-2
        1.39128888889E-2
        1.39289325717E-2
        1.39449271821E-2
        1.39608731912E-2
        1.39767710696E-2
        1.39926212878E-2
        1.40084243157E-2
        1.40241806229E-2
        1.40398906788E-2
        1.40555549522E-2
        1.40711739118E-2
        1.40867480259E-2
        1.41022777622E-2
        1.41177635884E-2
        1.41332059717E-2
        1.41486053789E-2
        1.41639622765E-2
        1.41792771307E-2
        1.41945504072E-2
        1.42097825715E-2
        1.42249740887E-2
        1.42401254236E-2
        1.42552370405E-2
        1.42703094035E-2
        1.42853429763E-2
        1.43003382223E-2
        1.43152956044E-2
        1.43302155854E-2
        1.43450986274E-2
        1.43599451926E-2
        1.43747557424E-2
        1.43895307381E-2
        1.44042706407E-2
        1.44189759107E-2
        1.44336470083E-2
        1.44482843933E-2
        1.44628885253E-2
        1.44774598634E-2
        1.44919988664E-2
        1.45065059929E-2
        1.45209817008E-2
        1.45354264480E-2
        1.45498406919E-2
        1.45642248894E-2
        1.45785794975E-2
        1.45929049723E-2
        1.46072017700E-2
        1.46214703461E-2
        1.46357111560E-2
        1.46499246547E-2
        1.46641112968E-2
        1.46782715365E-2
        1.46924058277E-2
        1.47065146241E-2
        1.47205983788E-2
        1.47346575447E-2
        1.47486925743E-2
        1.47627039198E-2
        1.47766920330E-2
        1.47906573654E-2
        1.48046003681E-2
        1.48185214919E-2
        1.48324211871E-2
        1.48462999039E-2
        1.48601580920E-2
        1.48739962007E-2
        1.48878146791E-2
        1.49016139759E-2
        1.49153945393E-2
        1.49291568173E-2
        1.49429012577E-2
        1.49566283075E-2
        1.49703384139E-2
        1.49840320233E-2
        1.49977095819E-2
        1.50113715357E-2
        1.50250183302E-2
        1.50386504106E-2
        1.50522682216E-2
        1.50658722078E-2
        1.50794628132E-2
        1.50930404818E-2
        1.51066056568E-2
        1.51201587814E-2
        1.51337002984E-2
        1.51472306500E-2
        1.51607502784E-2
        1.51742596252E-2
        1.51877591317E-2
        1.52012492389E-2
        1.52147303876E-2
        1.52282030178E-2
        1.52416675697E-2
        1.52551244827E-2
        1.52685741961E-2
        1.52820171489E-2
        1.52954537794E-2
        1.53088845260E-2
        1.53223098264E-2
        1.53357301182E-2
        1.53491458384E-2
        1.53625574240E-2
        1.53759653112E-2
        1.53893699363E-2
        1.54027717349E-2
        1.54161711425E-2
        1.54295685940E-2
        1.54429645242E-2
        1.54563593675E-2
        1.54697535577E-2
        1.54831475286E-2
        1.54965417135E-2
        1.55099365452E-2
        1.55233324565E-2
        1.55367298795E-2
        1.55501292461E-2
        1.55635309879E-2
        1.55769355361E-2
        1.55903433216E-2
        1.56037547747E-2
        1.56171703258E-2
        1.56305904045E-2
        1.56440154403E-2
        1.56574458624E-2
        1.56708820995E-2
        1.56843245800E-2
        1.56977737319E-2
        1.57112299829E-2
        1.57246937604E-2
        1.57381654914E-2
        1.57516456026E-2
        1.57651345203E-2
        1.57786326703E-2
        1.57921404784E-2
        1.58056583697E-2
        1.58191867692E-2
        1.58327261015E-2
        1.58462767907E-2
        1.58598392607E-2
        1.58734139351E-2
        1.58870012369E-2
        1.59006015890E-2
        1.59142154138E-2
        1.59278431335E-2
        1.59414851698E-2
        1.59551419441E-2
        1.59688138776E-2
        1.59825013908E-2
        1.59962049042E-2
        1.60099248378E-2
        1.60236616112E-2
        1.60374156438E-2
        1.60511873545E-2
        1.60649771619E-2
        1.60787854844E-2
        1.60926127398E-2
        1.61064593456E-2
        1.61203257192E-2
        1.61342122774E-2
        1.61481194367E-2
        1.61620476132E-2
        1.61759972228E-2
        1.61899686810E-2
        1.62039624028E-2
        1.62179788031E-2
        1.62320182963E-2
        1.62460812964E-2
        1.62601682172E-2
        1.62742794720E-2
        1.62884154739E-2
        1.63025766355E-2
        1.63167633692E-2
        1.63309760869E-2
        1.63452152003E-2
        1.63594811206E-2
        1.63737742588E-2
        1.63880950255E-2
        1.64024438308E-2
        1.64168210846E-2
        1.64312271966E-2
        1.64456625758E-2
        1.64601276311E-2
        1.64746227709E-2
        1.64891484035E-2
        1.65037049365E-2
        1.65182927775E-2
        1.65329123334E-2
        1.65475640111E-2
        1.65622482169E-2
        1.65769653568E-2
        1.65917158366E-2
        1.66065000615E-2
        1.66213184366E-2
        1.66361713664E-2
        1.66510592553E-2
        1.66659825073E-2
        1.66809415258E-2
        1.66959367142E-2
        1.67109684753E-2
        1.67260372116E-2
        1.67411433254E-2
        1.67562872185E-2
        1.67714692924E-2
        1.67866899482E-2
        1.68019495867E-2
        1.68172486084E-2
        1.68325874133E-2
        1.68479664012E-2
        1.68633859714E-2
        1.68788465231E-2
        1.68943484550E-2
        1.69098921653E-2
        1.69254780520E-2
        1.69411065129E-2
        1.69567779451E-2
        1.69724927457E-2
        1.69882513113E-2
        1.70040540380E-2
        1.70199013219E-2
        1.70357935583E-2
        1.70517311427E-2
        1.70677144697E-2
        1.70837439339E-2
        1.70998199294E-2
        1.71159428501E-2
        1.71321130894E-2
        1.71483310404E-2
        1.71645970958E-2
        1.71809116481E-2
        1.71972750893E-2
        1.72136878111E-2
        1.72301502048E-2
        1.72466626616E-2
        1.72632255719E-2
        1.72798393262E-2
        1.72965043144E-2
        1.73132209261E-2
        1.73299895505E-2
        1.73468105766E-2
        1.73636843929E-2
        1.73806113876E-2
        1.73975919487E-2
        1.74146264635E-2
        1.74317153193E-2
        1.74488589029E-2
        1.74660576007E-2
        1.74833117988E-2
        1.75006218831E-2
        1.75179882389E-2
        1.75354112512E-2
        1.75528913049E-2
        1.75704287842E-2
        1.75880240732E-2
        1.76056775556E-2
        1.76233896146E-2
        1.76411606332E-2
        1.76589909941E-2
        1.76768810795E-2
        1.76948312714E-2
        1.77128419512E-2
        1.77309135003E-2
        1.77490462994E-2
        1.77672407292E-2
        1.77854971697E-2
        1.78038160008E-2
        1.78221976020E-2
        1.78406423524E-2
        1.78591506308E-2
        1.78777228156E-2
        1.78963592848E-2
        1.79150604162E-2
        1.79338265872E-2
        1.79526581747E-2
        1.79715555556E-2
        1.79905191060E-2
        1.80095492020E-2
        1.80286462191E-2
        1.80478105328E-2
        1.80670425178E-2
        1.80863425489E-2
        1.81057110001E-2
        1.81251482454E-2
        1.81446546584E-2
        1.81642306121E-2
        1.81838764795E-2
        1.82035926329E-2
        1.82233794447E-2
        1.82432372864E-2
        1.82631665296E-2
        1.82831675454E-2
        1.83032407044E-2
        1.83233863771E-2
        1.83436049335E-2
        1.83638967432E-2
        1.83842621757E-2
        1.84047015999E-2
        1.84252153844E-2
        1.84458038976E-2
        1.84664675073E-2
        1.84872065812E-2
        1.85080214864E-2
        1.85289125900E-2
        1.85498802584E-2
        1.85709248578E-2
        1.85920467540E-2
        1.86132463126E-2
        1.86345238987E-2
        1.86558798771E-2
        1.86773146122E-2
        1.86988284681E-2
        1.87204218086E-2
        1.87420949971E-2
        1.87638483965E-2
        1.87856823696E-2
        1.88075972788E-2
        1.88295934861E-2
        1.88516713530E-2
        1.88738312409E-2
        1.88960735107E-2
        1.89183985231E-2
        1.89408066383E-2
        1.89632982161E-2
        1.89858736162E-2
        1.90085331977E-2
        1.90312773194E-2
        1.90541063400E-2
        1.90770206175E-2
        1.91000205098E-2
        1.91231063742E-2
        1.91462785679E-2
        1.91695374477E-2
        1.91928833699E-2
        1.92163166907E-2
        1.92398377656E-2
        1.92634469502E-2
        1.92871445993E-2
        1.93109310676E-2
        1.93348067095E-2
        1.93587718789E-2
        1.93828269294E-2
        1.94069722142E-2
        1.94312080864E-2
        1.94555348984E-2
        1.94799530024E-2
        1.95044627503E-2
        1.95290644937E-2
        1.95537585836E-2
        1.95785453709E-2
        1.96034252061E-2
        1.96283984393E-2
        1.96534654202E-2
        1.96786264982E-2
        1.97038820225E-2
        1.97292323417E-2
        1.97546778042E-2
        1.97802187580E-2
        1.98058555507E-2
        1.98315885298E-2
        1.98574180422E-2
        1.98833444344E-2
        1.99093680528E-2
        1.99354892432E-2
        1.99617083513E-2
        1.99880257223E-2
        2.00144417010E-2
        2.00409566319E-2
        2.00675708593E-2
        2.00942847269E-2
        2.01210985783E-2
        2.01480127564E-2
        2.01750276043E-2
        2.02021434641E-2
        2.02293606781E-2
        2.02566795879E-2
        2.02841005350E-2
        2.03116238603E-2
        2.03392499045E-2
        2.03669790079E-2
        2.03948115106E-2
        2.04227477522E-2
        2.04507880719E-2
        2.04789328087E-2
        2.05071823011E-2
        2.05355368874E-2
        2.05639969054E-2
        2.05925626927E-2
        2.06212345865E-2
        2.06500129237E-2
        2.06788980405E-2
        2.07078902734E-2
        2.07369899579E-2
        2.07661974295E-2
        2.07955130234E-2
        2.08249370743E-2
        2.08544699165E-2
        2.08841118840E-2
        2.09138633107E-2
        2.09437245297E-2
        2.09736958742E-2
        2.10037776766E-2
        2.10339702694E-2
        2.10642739845E-2
        2.10946891534E-2
        2.11252161074E-2
        2.11558551773E-2
        2.11866066938E-2
        2.12174709871E-2
        2.12484483868E-2
        2.12795392227E-2
        2.13107438237E-2
        2.13420625187E-2
        2.13734956361E-2
        2.14050435041E-2
        2.14367064503E-2
        2.14684848022E-2
        2.15003788868E-2
        2.15323890309E-2
        2.15645155607E-2
        2.15967588022E-2
        2.16291190811E-2
        2.16615967228E-2
        2.16941920521E-2
        2.17269053937E-2
        2.17597370717E-2
        2.17926874102E-2
        2.18257567326E-2
        2.18589453622E-2
        2.18922536218E-2
        2.19256818339E-2
        2.19592303207E-2
        2.19928994039E-2
        2.20266894051E-2
        2.20606006453E-2
        2.20946334453E-2
        2.21287881255E-2
        2.21630650059E-2
        2.21974644063E-2
        2.22319866460E-2
        2.22666320440E-2
        2.23014009189E-2
        2.23362935892E-2
        2.23713103727E-2
        2.24064515871E-2
        2.24417175496E-2
        2.24771085771E-2
        2.25126249862E-2
        2.25482670931E-2
        2.25840352137E-2
        2.26199296634E-2
        2.26559507575E-2
        2.26920988107E-2
        2.27283741376E-2
        2.27647770521E-2
        2.28013078682E-2
        2.28379668992E-2
        2.28747544582E-2
        2.29116708578E-2
        2.29487164105E-2
        2.29858914283E-2
        2.30231962229E-2
        2.30606311055E-2
        2.30981963872E-2
        2.31358923785E-2
        2.31737193897E-2
        2.32116777308E-2
        2.32497677113E-2
        2.32879896405E-2
        2.33263438272E-2
        2.33648305799E-2
        2.34034502068E-2
        2.34422030157E-2
        2.34810893142E-2
        2.35201094092E-2
        2.35592636077E-2
        2.35985522160E-2
        2.36379755403E-2
        2.36775338862E-2
        2.37172275590E-2
        2.37570568640E-2
        2.37970221056E-2
        2.38371235883E-2
        2.38773616160E-2
        2.39177364924E-2
        2.39582485207E-2
        2.39988980039E-2
        2.40396852445E-2
        2.40806105448E-2
        2.41216742067E-2
        2.41628765317E-2
        2.42042178210E-2
        2.42456983753E-2
        2.42873184953E-2
        2.43290784810E-2
        2.43709786322E-2
        2.44130192484E-2
        2.44552006286E-2
        2.44975230716E-2
        2.45399868757E-2
        2.45825923391E-2
        2.46253397593E-2
        2.46682294338E-2
        2.47112616595E-2
        2.47544367330E-2
        2.47977549507E-2
        2.48412166085E-2
        2.48848220020E-2
        2.49285714264E-2
        2.49724651765E-2
        2.50165035471E-2
        2.50606868322E-2
        2.51050153257E-2
        2.51494893211E-2
        2.51941091115E-2
        2.52388749897E-2
        2.52837872482E-2
        2.53288461791E-2
        2.53740520741E-2
        2.54194052246E-2
        2.54649059217E-2
        2.55105544560E-2
        2.55563511180E-2
        2.56022961975E-2
        2.56483899843E-2
        2.56946327677E-2
        2.57410248366E-2
        2.57875664795E-2
        2.58342579849E-2
        2.58810996405E-2
        2.59280917339E-2
        2.59752345523E-2
        2.60225283826E-2
        2.60699735113E-2
        2.61175702245E-2
        2.61653188081E-2
        2.62132195474E-2
        2.62612727276E-2
        2.63094786335E-2
        2.63578375495E-2
        2.64063497596E-2
        2.64550155475E-2
        2.65038351965E-2
        2.65528089898E-2
        2.66019372100E-2
        2.66512201393E-2
        2.67006580597E-2
        2.67502512528E-2
        2.68000000000E-2
        2.68499045821E-2
        2.68999652796E-2
        2.69501823728E-2
        2.70005561416E-2
        2.70510868655E-2
        2.71017748235E-2
        2.71526202947E-2
        2.72036235573E-2
        2.72547848895E-2
        2.73061045692E-2
        2.73575828736E-2
        2.74092200800E-2
        2.74610164649E-2
        2.75129723048E-2
        2.75650878757E-2
        2.76173634532E-2
        2.76697993127E-2
        2.77223957291E-2
        2.77751529771E-2
        2.78280713310E-2
        2.78811510646E-2
        2.79343924515E-2
        2.79877957650E-2
        2.80413612779E-2
        2.80950892628E-2
        2.81489799918E-2
        2.82030337367E-2
        2.82572507691E-2
        2.83116313600E-2
        2.83661757802E-2
        2.84208843002E-2
        2.84757571901E-2
        2.85307947195E-2
        2.85859971578E-2
        2.86413647741E-2
        2.86968978371E-2
        2.87525966150E-2
        2.88084613759E-2
        2.88644923874E-2
        2.89206899168E-2
        2.89770542310E-2
        2.90335855965E-2
        2.90902842797E-2
        2.91471505464E-2
        2.92041846621E-2
        2.92613868920E-2
        2.93187575010E-2
        2.93762967536E-2
        2.94340049138E-2
        2.94918822455E-2
        2.95499290121E-2
        2.96081454767E-2
        2.96665319020E-2
        2.97250885504E-2
        2.97838156840E-2
        2.98427135644E-2
        2.99017824530E-2
        2.99610226108E-2
        3.00204342984E-2
        3.00800177761E-2
        3.01397733039E-2
        3.01997011413E-2
        3.02598015476E-2
        3.03200747816E-2
        3.03805211020E-2
        3.04411407669E-2
        3.05019340342E-2
        3.05629011614E-2
        3.06240424055E-2
        3.06853580234E-2
        3.07468482716E-2
        3.08085134062E-2
        3.08703536828E-2
        3.09323693569E-2
        3.09945606836E-2
        3.10569279175E-2
        3.11194713130E-2
        3.11821911241E-2
        3.12450876044E-2
        3.13081610073E-2
        3.13714115856E-2
        3.14348395921E-2
        3.14984452789E-2
        3.15622288980E-2
        3.16261907009E-2
        3.16903309388E-2
        3.17546498625E-2
        3.18191477227E-2
        3.18838247693E-2
        3.19486812523E-2
        3.20137174211E-2
        3.20789335248E-2
        3.21443298122E-2
        3.22099065316E-2
        3.22756639311E-2
        3.23416022585E-2
        3.24077217611E-2
        3.24740226859E-2
        3.25405052795E-2
        3.26071697884E-2
        3.26740164583E-2
        3.27410455350E-2
        3.28082572638E-2
        3.28756518894E-2
        3.29432296566E-2
        3.30109908095E-2
        3.30789355919E-2
        3.31470642474E-2
        3.32153770192E-2
        3.32838741501E-2
        3.33525558824E-2
        3.34214224585E-2
        3.34904741199E-2
        3.35597111083E-2
        3.36291336645E-2
        3.36987420293E-2
        3.37685364431E-2
        3.38385171460E-2
        3.39086843776E-2
        3.39790383771E-2
        3.40495793837E-2
        3.41203076358E-2
        3.41912233719E-2
        3.42623268297E-2
        3.43336182469E-2
        3.44050978607E-2
        3.44767659080E-2
        3.45486226253E-2
        3.46206682488E-2
        3.46929030142E-2
        3.47653271572E-2
        3.48379409127E-2
        3.49107445157E-2
        3.49837382004E-2
        3.50569222011E-2
        3.51302967514E-2
        3.52038620846E-2
